X:1
T:Anglais efter Ola Hansson
C:Ola Hansson
R:Anglais
Z:Patrik Mnsson, 2008-10-16
O:Brunnby, Skne
S:http://spillefolk.dk/nodesamling/visnode.phpkey=en-olahangl
M:2/4
L:1/16
K:G
|: "G"E2EG B2Bc | "D"A2Ac  "G"B2G2 | "G"E2EG B2Bc | "D"AGAB "G"G4 :|
|: "G"dcBc d2ef | "C"g2fg "G"d4 | "G"dcBc defg | "D"dcAF "G"G4 :|
